X:1
T:O Sole Mio
T:O Sole Mio
T:E. di Capua
C:E. di Capua
L:1/8
M:4/4
K:A
V:1 treble 
V:1
|:"A" z2 e2 d2 c2 | B4 A4 | A2 B2 c2 A2 |"Bm" G4 F4- | F2 G2 A2 B2 |"E7" G2 F2 F4- | F2 G2 A2 B2 | %7
"A" F2 E2 E4 |"A" z2 e2 d2 c2 | B4 A4 | A2 B2 c2 A2 |"Bm"{A} G4 F4- | F2 d2 c2 B2 | %13
"A" e2 c2 B2 A2 |"E7" B6 c2 |"A" B2{cB} A6 || x8 | z2 !fermata!a2 !fermata!a2 !fermata!g2 | %18
"A"{g} e4 e4- | e2 g2 g2 f2 |"Bm"{f} d8- | d2 g2 g2 f2 |"Bm"{f} d4 d4- |"E7" d2 B2 c2 d2 |"A" e8 | %25
 z6 e2 |"Dm" =f8- | f2 d2 a3 =f |"A" e4 e4- | e2 c2 B2 A2 |"E7" e8- | e2 c2{Bc} B3 G |"A" A8 :|33 %33
 z2 c2 B2 A2 |"E7" e8- | e2 e2 [ec']3 [db] |"A" [ca]8 |] %37

